FINK
CUT[IM SACHSENLAND KENN ICH EIN STAEDCHEN]
REG[Europa, Mitteleuropa, Deutschland]
KEY[F0143  16  G 6/8]
MEL[-5_  1_1_1_2_-7_-5_  1__3_-5__
    -5_  1_1_1_2_-7_-5_  1__3_5__
    3_  2_.22_+1_6_4#_  5__0__.
    5_  542_2_2_1_2_  1__3_-5__
    5_  542_2_2_1_2_  1__3_5__
    5_  +1_+1_+1_+1_7_7b_  6__.0__
    6_  5_.65_4_3_2_  1__.0__ //] >>
FCT[Liebes - Lied]
